fs/flash_settings_24_filled.svg

<svg viewBox="0 0 24 24" fill="none" xmlns="http://www.w3.org/2000/svg" height="1em" width="1em">
  <path d="M7.42407 2.83052C7.60147 2.33254 8.07295 2 8.60158 2H15.0552C15.9084 2 16.5109 2.83587 16.2411 3.64528L14.7895 8H18.7483C19.8524 8 20.4143 9.32682 19.646 10.1198L18.6882 11.1084C18.303 11.0372 17.9058 11 17.5 11C13.9101 11 11 13.9101 11 17.5C11 17.977 11.0514 18.442 11.1489 18.8898L8.58502 21.536C7.53128 22.6236 5.71307 21.6422 6.04398 20.1645L7.31321 14.4964L5.74476 14.4904C4.53801 14.4858 3.69797 13.2899 4.10294 12.1532L7.42407 2.83052ZM14.2772 13.9759C14.592 15.0661 13.9376 16.1995 12.836 16.4721L12.2518 16.6166C12.2069 16.9043 12.1836 17.1995 12.1836 17.5003C12.1836 17.815 12.2091 18.1235 12.2582 18.4237L12.7976 18.5536C13.9102 18.8216 14.5715 19.9666 14.2476 21.0641L14.0613 21.6954C14.5005 22.081 15.0009 22.3942 15.5455 22.6169L16.0388 22.0982C16.8273 21.269 18.1496 21.2692 18.9379 22.0987L19.4366 22.6235C19.9801 22.4032 20.4801 22.093 20.9194 21.7106L20.7214 21.0247C20.4066 19.9344 21.061 18.801 22.1626 18.5285L22.7463 18.384C22.7912 18.0963 22.8145 17.8011 22.8145 17.5003C22.8145 17.1856 22.789 16.877 22.7399 16.5767L22.2009 16.4469C21.0884 16.179 20.4271 15.034 20.751 13.9364L20.9371 13.3056C20.498 12.9198 19.9975 12.6066 19.4529 12.3838L18.9598 12.9023C18.1713 13.7316 16.849 13.7313 16.0607 12.9018L15.5619 12.377C15.0184 12.5972 14.5184 12.9073 14.0791 13.2897L14.2772 13.9759ZM17.4991 19.0003C16.6984 19.0003 16.0494 18.3287 16.0494 17.5003C16.0494 16.6719 16.6984 16.0003 17.4991 16.0003C18.2997 16.0003 18.9487 16.6719 18.9487 17.5003C18.9487 18.3287 18.2997 19.0003 17.4991 19.0003Z" fill="#212121"/>
</svg>

<svg viewBox="0 0 24 24" fill="none" xmlns="http://www.w3.org/2000/svg" height="1em" width="1em">
  <path d="M7.424 2.83A1.25 1.25 0 0 1 8.602 2h6.453a1.25 1.25 0 0 1 1.186 1.645L14.79 8h3.958c1.104 0 1.666 1.327.898 2.12l-.958.988a6.5 6.5 0 0 0-7.54 7.781l-2.563 2.647c-1.054 1.088-2.872.106-2.541-1.372l1.27-5.668-1.57-.006a1.75 1.75 0 0 1-1.641-2.337l3.321-9.322Zm6.853 11.146a2 2 0 0 1-1.441 2.496l-.584.145a5.729 5.729 0 0 0 .006 1.807l.54.13a2 2 0 0 1 1.45 2.51l-.187.631c.44.386.94.7 1.485.922l.493-.519a2 2 0 0 1 2.899 0l.499.526a5.282 5.282 0 0 0 1.482-.913l-.198-.686a2 2 0 0 1 1.442-2.496l.583-.145a5.729 5.729 0 0 0-.006-1.807l-.54-.13a2 2 0 0 1-1.449-2.51l.186-.631a5.278 5.278 0 0 0-1.484-.922l-.493.518a2 2 0 0 1-2.9 0l-.498-.525c-.544.22-1.044.53-1.483.913l.198.686ZM17.5 19c-.8 0-1.45-.671-1.45-1.5 0-.828.65-1.5 1.45-1.5.8 0 1.45.672 1.45 1.5 0 .829-.65 1.5-1.45 1.5Z" fill="#212121"/>
</svg>
